images/Services/Travma.svg

<svg width="75" height="109" viewBox="0 0 75 109" xmlns="http://www.w3.org/2000/svg">
<path d="M63.5685 109C63.4144 108.999 63.261 108.981 63.1112 108.945C62.874 108.885 62.6511 108.778 62.4558 108.63C62.2604 108.483 62.0965 108.297 61.9737 108.084C61.8509 107.872 61.7718 107.636 61.741 107.393C61.7102 107.149 61.7283 106.901 61.7943 106.664C61.7943 106.545 64.9677 94.2325 69.7598 72.5502C74.3324 51.769 67.3454 41.2865 67.2723 41.2221L67.1442 41.0106L47.3723 2.68498C47.1491 2.25089 47.1066 1.74545 47.2541 1.27985C47.4016 0.814256 47.727 0.42664 48.1587 0.202278C48.5905 -0.0220844 49.0932 -0.0648149 49.5562 0.0834866C50.0193 0.231788 50.4048 0.558973 50.628 0.993066L70.3451 39.2543C71.2596 40.5968 78.0911 51.8426 73.3264 73.3777C68.5252 95.1336 65.3701 107.492 65.3426 107.621C65.2411 108.016 65.0117 108.366 64.6905 108.616C64.3692 108.866 63.9745 109.001 63.5685 109Z" fill="#87AD3B"/>
<path d="M16.7449 109C16.6201 109.009 16.4948 109.009 16.3699 109C16.1344 108.951 15.9109 108.855 15.7121 108.719C15.5133 108.583 15.3432 108.408 15.2115 108.206C15.0799 108.004 14.9892 107.777 14.9447 107.539C14.9003 107.302 14.9029 107.057 14.9524 106.821C14.9524 106.618 19.1318 86.8487 20.8511 78.242C21.7016 73.9202 21.3815 68.9272 19.8909 63.4009C18.9763 60.0355 17.0558 57.0746 15.0165 53.9298C14.2848 52.808 13.5349 51.6494 12.8399 50.4724L0.256059 29.2867C0.00744859 28.8672 -0.065255 28.3656 0.0539418 27.8923C0.173139 27.4189 0.474472 27.0126 0.891652 26.7626C1.30883 26.5126 1.80769 26.4395 2.27847 26.5594C2.74925 26.6792 3.15341 26.9822 3.40202 27.4017L15.9767 48.5506C16.6352 49.6633 17.3668 50.7943 18.0801 51.8885C20.1835 55.1252 22.3601 58.4723 23.4209 62.3986C25.0671 68.4767 25.4054 74.0398 24.436 78.95C22.7167 87.5751 18.5739 107.363 18.5374 107.565C18.4457 107.974 18.2181 108.339 17.8922 108.6C17.5662 108.861 17.1615 109.002 16.7449 109Z" fill="#87AD3B"/>
<path d="M43.1472 65.8009C41.802 65.8199 40.4624 65.6244 39.1781 65.2216C38.1523 64.9258 37.2032 64.4078 36.3975 63.7041C35.5918 63.0005 34.949 62.1281 34.5141 61.1481C33.9013 59.6953 34.0842 57.6907 34.2489 55.9252C34.3129 55.2816 34.3678 54.6839 34.3678 54.2609V50.3162C34.3678 46.8864 32.6576 43.7876 30.8468 40.5141L30.7828 40.3945C25.6066 30.9787 17.257 15.9905 17.257 15.9905L20.4487 14.1514C20.4487 14.1514 28.78 29.1948 33.9837 38.6199L34.0477 38.7394C36.0047 42.298 38.0258 45.976 38.0258 50.3162V54.2517C38.0258 54.8494 37.9618 55.5299 37.8978 56.2563C37.7235 57.3959 37.7235 58.5556 37.8978 59.6953C38.1331 60.1897 38.4726 60.6267 38.8927 60.976C39.3127 61.3253 39.8033 61.5786 40.3304 61.7182C43.5861 62.7941 48.9452 61.6079 53.655 58.8493C54.1632 58.5778 54.5964 58.1835 54.9157 57.702C55.2349 57.2206 55.4302 56.6669 55.4841 56.0908C55.9413 51.9069 50.5274 44.6887 44.9579 39.4015C38.4465 33.2223 30.92 10.317 30.5999 9.34233C30.5303 9.10988 30.5068 8.86591 30.5309 8.62435C30.5551 8.3828 30.6263 8.14838 30.7405 7.93449C30.8547 7.7206 31.0097 7.53142 31.1966 7.37776C31.3836 7.2241 31.5988 7.10897 31.83 7.03893C32.2969 6.89748 32.8005 6.94832 33.2301 7.18026C33.6598 7.41219 33.9802 7.80623 34.1208 8.27568C36.2059 14.6204 42.6716 32.1832 47.5552 36.7808C50.4999 39.5394 60.0201 49.2403 59.2062 56.5505C59.0797 57.6913 58.6811 58.7844 58.0442 59.737C57.4073 60.6896 56.551 61.4733 55.5481 62.0217C51.812 64.345 47.5375 65.6477 43.1472 65.8009Z" fill="#87AD3B"/>
<path d="M41.0072 57.277C40.7286 57.2774 40.4536 57.2138 40.2032 57.0911C39.9528 56.9684 39.7335 56.7898 39.5622 56.5689C39.2642 56.1867 39.1286 55.7014 39.1852 55.219C39.2417 54.7367 39.4858 54.2964 39.864 53.9943C42.004 52.3115 47.3082 50.0679 52.1278 53.6173C52.3217 53.7598 52.4859 53.9393 52.6108 54.1455C52.7358 54.3518 52.8191 54.5808 52.8561 54.8195C52.893 55.0581 52.8828 55.3017 52.8261 55.5364C52.7694 55.7711 52.6673 55.9923 52.5256 56.1873C52.3839 56.3823 52.2053 56.5474 52.0002 56.673C51.795 56.7987 51.5673 56.8825 51.3299 56.9196C51.0926 56.9567 50.8503 56.9465 50.6168 56.8895C50.3834 56.8325 50.1635 56.7298 49.9695 56.5873C46.1925 53.8288 42.2875 56.7712 42.1229 56.8908C41.8036 57.1399 41.4113 57.2757 41.0072 57.277Z" fill="#87AD3B"/>
<path d="M40.0103 109C39.6374 108.999 39.2736 108.884 38.9678 108.669C38.5706 108.39 38.2993 107.965 38.2136 107.486C38.1279 107.007 38.2347 106.513 38.5105 106.113C40.1292 103.768 39.672 99.9335 39.105 96.8531C38.5367 94.5057 37.5381 92.2854 36.1602 90.3061C35.456 89.1475 34.7244 87.9429 34.0751 86.628C32.5231 83.5073 31.5148 80.1421 31.0937 76.6788C31.0937 76.6144 30.3987 69.5617 33.7001 67.4008C34.3784 66.9824 35.1643 66.7741 35.9596 66.8019C36.7549 66.8297 37.5244 67.0924 38.1722 67.5572C41.3273 69.3962 46.4029 69.3962 50.4633 69.3962H53.2069C55.3469 69.3962 57.7795 69.3962 59.4531 72.5502C60.7243 74.9777 60.9712 77.8926 61.0352 80.4305C61.0597 84.4918 60.5523 88.5388 59.5263 92.467C58.3686 97.3748 56.8118 102.179 54.8713 106.83C54.6834 107.28 54.3253 107.636 53.876 107.821C53.4266 108.005 52.9228 108.003 52.4753 107.814C52.0278 107.625 51.6733 107.265 51.4898 106.813C51.3063 106.361 51.3088 105.855 51.4967 105.405C53.3558 100.937 54.8484 96.324 55.9596 91.6118C56.9103 87.9902 57.3838 84.2588 57.368 80.5132C57.3131 78.4075 57.1302 76.0167 56.2065 74.2697C55.5938 73.1019 55.1914 73.0651 53.1978 73.0651H50.4542C45.9456 73.0651 40.3304 73.0651 36.3157 70.7295C36.1243 70.5899 35.901 70.5013 35.6664 70.472C35.0536 70.8031 34.45 73.8651 34.7518 76.265C35.137 79.3011 36.0339 82.249 37.404 84.9821C37.9801 86.1683 38.6569 87.2993 39.3245 88.3843C40.9424 90.7361 42.1001 93.3762 42.7356 96.1635C43.4398 99.9427 43.9428 104.733 41.5559 108.2C41.3845 108.452 41.1535 108.657 40.8837 108.796C40.6139 108.936 40.3137 109.006 40.0103 109Z" fill="#87AD3B"/>
<path d="M46.3571 82.4626C43.4767 82.521 40.6522 81.6581 38.291 79.9983C37.9103 79.6947 37.665 79.2514 37.6093 78.766C37.5535 78.2805 37.6919 77.7927 37.9938 77.4098C38.2958 77.027 38.7367 76.7804 39.2195 76.7243C39.7023 76.6683 40.1874 76.8074 40.5682 77.111C40.7786 77.2765 45.1408 80.5316 51.8809 77.5707C52.1035 77.4416 52.3507 77.361 52.6063 77.3343C52.862 77.3077 53.1203 77.3355 53.3646 77.4159C53.6088 77.4964 53.8335 77.6277 54.0239 77.8013C54.2143 77.9749 54.3661 78.1869 54.4696 78.4235C54.573 78.6601 54.6257 78.9159 54.6241 79.1744C54.6226 79.4328 54.567 79.688 54.4608 79.9234C54.3546 80.1587 54.2003 80.3689 54.0078 80.5402C53.8154 80.7116 53.5893 80.8402 53.3441 80.9178C51.1464 81.9129 48.7673 82.4389 46.3571 82.4626Z" fill="#87AD3B"/>
<path d="M65.6353 69.5893C65.246 69.5934 64.8664 69.4672 64.5561 69.2307C64.1664 68.9424 63.9062 68.5105 63.8325 68.0296C63.7588 67.5488 63.8776 67.0582 64.1629 66.6652C64.5617 66.053 64.7586 65.33 64.7258 64.5988C64.693 63.8676 64.432 63.1654 63.98 62.5918C63.686 62.205 63.5565 61.7168 63.6199 61.2341C63.6834 60.7515 63.9345 60.3138 64.3184 60.0171C64.6985 59.7242 65.1777 59.5928 65.6531 59.6513C66.1284 59.7098 66.562 59.9534 66.8607 60.3298C67.8076 61.5316 68.3431 63.0088 68.3876 64.5413C68.4321 66.0739 67.9832 67.58 67.1077 68.8353C66.9383 69.0684 66.7168 69.258 66.461 69.389C66.2052 69.52 65.9223 69.5886 65.6353 69.5893Z" fill="#87AD3B"/>
</svg>
<?xml-stylesheet type="text/css" href="./css/style.min.css"?>

<?xml-stylesheet type="text/css" href="/css/style.min.css"?><svg viewBox="0 0 75 109" xmlns="http://www.w3.org/2000/svg"><path d="M63.569 109a1.827 1.827 0 01-1.595-.916 1.844 1.844 0 01-.18-1.42c0-.119 3.174-12.431 7.966-34.114 4.572-20.781-2.415-31.264-2.488-31.328l-.128-.211L47.372 2.685A1.851 1.851 0 0148.16.202a1.823 1.823 0 011.397-.119c.463.149.849.476 1.072.91l19.717 38.261c.915 1.343 7.746 12.589 2.981 34.124-4.8 21.756-7.956 34.114-7.983 34.243a1.841 1.841 0 01-.653.995 1.82 1.82 0 01-1.121.384zm-46.824 0c-.125.009-.25.009-.375 0a1.824 1.824 0 01-1.159-.794 1.843 1.843 0 01-.259-1.385c0-.203 4.18-19.972 5.9-28.579.85-4.322.53-9.315-.961-14.841-.915-3.366-2.835-6.326-4.874-9.471a92.023 92.023 0 01-2.177-3.458L.256 29.287a1.85 1.85 0 01.636-2.524 1.822 1.822 0 012.51.639L15.977 48.55a92.292 92.292 0 002.103 3.337c2.104 3.237 4.28 6.584 5.34 10.51 1.647 6.079 1.985 11.642 1.016 16.552-1.72 8.625-5.862 28.413-5.899 28.615a1.837 1.837 0 01-.645 1.035 1.82 1.82 0 01-1.147.4z" fill="#87AD3B"/><path d="M43.147 65.8a12.664 12.664 0 01-3.969-.578 7.304 7.304 0 01-2.78-1.518 7.352 7.352 0 01-1.884-2.556c-.613-1.453-.43-3.457-.265-5.223.064-.643.119-1.241.119-1.664v-3.945c0-3.43-1.71-6.528-3.521-9.802l-.064-.12c-5.176-9.415-13.526-24.403-13.526-24.403l3.192-1.84S28.78 29.195 33.984 38.62l.064.12c1.957 3.558 3.978 7.236 3.978 11.576v3.936c0 .597-.064 1.278-.128 2.004-.175 1.14-.175 2.3 0 3.44a3.775 3.775 0 002.432 2.022c3.256 1.076 8.615-.11 13.325-2.869a3.482 3.482 0 001.26-1.147 3.51 3.51 0 00.57-1.611c.456-4.184-4.958-11.402-10.527-16.69C38.447 33.222 30.92 10.317 30.6 9.342a1.86 1.86 0 01.597-1.964 1.836 1.836 0 012.033-.198c.43.232.75.626.89 1.096 2.086 6.344 8.552 23.907 13.435 28.505C50.5 39.539 60.02 49.24 59.206 56.55a7.151 7.151 0 01-1.162 3.186 7.102 7.102 0 01-2.496 2.285 25.142 25.142 0 01-12.4 3.779z" fill="#87AD3B"/><path d="M41.007 57.277a1.821 1.821 0 01-1.445-.708 1.846 1.846 0 01.302-2.575c2.14-1.682 7.444-3.926 12.264-.377a1.836 1.836 0 01.728 1.203A1.85 1.85 0 0152 56.672a1.821 1.821 0 01-2.03-.086c-3.777-2.758-7.682.184-7.847.304-.32.249-.712.385-1.116.386zM40.01 109a1.82 1.82 0 01-1.042-.331 1.842 1.842 0 01-.458-2.556c1.62-2.345 1.162-6.18.595-9.26a19.482 19.482 0 00-2.945-6.547c-.704-1.159-1.436-2.363-2.085-3.678a30.652 30.652 0 01-2.981-9.95c0-.064-.695-7.116 2.606-9.277a4.035 4.035 0 014.472.156c3.155 1.84 8.23 1.84 12.291 1.84h2.744c2.14 0 4.572 0 6.246 3.153 1.271 2.428 1.518 5.343 1.582 7.88a46.522 46.522 0 01-1.509 12.037 92.391 92.391 0 01-4.655 14.363 1.823 1.823 0 01-3.381-.017 1.849 1.849 0 01.007-1.408 89.193 89.193 0 004.463-13.793 42.999 42.999 0 001.408-11.099c-.055-2.106-.238-4.496-1.162-6.243-.612-1.168-1.015-1.205-3.008-1.205h-2.744c-4.508 0-10.124 0-14.138-2.335a1.395 1.395 0 00-.65-.258c-.612.331-1.216 3.393-.914 5.793a27.05 27.05 0 002.652 8.717c.576 1.186 1.253 2.317 1.92 3.402a22.583 22.583 0 013.412 7.78c.704 3.779 1.207 8.569-1.18 12.036a1.824 1.824 0 01-1.546.8z" fill="#87AD3B"/><path d="M46.357 82.463a13.547 13.547 0 01-8.066-2.465 1.85 1.85 0 01-.297-2.588 1.826 1.826 0 012.574-.299c.21.165 4.573 3.42 11.313.46a1.824 1.824 0 012.589.853 1.847 1.847 0 01-.462 2.116c-.193.172-.419.3-.664.378a17.351 17.351 0 01-6.987 1.545zM65.635 69.59a1.75 1.75 0 01-1.079-.36 1.847 1.847 0 01-.393-2.566 3.5 3.5 0 00-.183-4.072 1.847 1.847 0 01.338-2.575 1.822 1.822 0 012.543.313 7.145 7.145 0 01.247 8.506 1.831 1.831 0 01-1.473.753z" fill="#87AD3B"/></svg>
